X:45
T:The Douglas Tragedy
Z:Jack Campin - http://www.campin.me.uk
S:Blaikie MS (NLS MS.1578) p16, Blaikie #44
M:2/4
L:1/8
V:1 midi program 1 74
V:2 midi program 1 46 bass middle = d transpose -24
Q:1/4=72
K:D
[V:1] F/G/|AAAA|Bc/d/ cB/A/|Bd````cB |A2z
[V:2] z   |fdfd|gd````ad   |gb````ag |fdf
%
[V:1] A   |BdFF|AB    DD/E/|F/A/F E>D|D2z|]
[V:2] d   |gdad|fg````fa   |d2    A2 |d2z|]
W:Transcription (c) Jack Campin 2009, no mirroring or republication without permission

